X: 29
T: 29. Freu dich sehr, o meine Seele
N: Derived from chor029.krn
C: Johann Sebastian Bach
%%abc-version 2.0
%%abcx-abcm2ps-target-version 5.9.1 (29 Sep 2008)
%%abc-creator hum2abc beta
%%abcx-conversion-date 2019/03/11 17:28:17
%%abc-edited-by Craig Stuart Sapp
%%humdrum-veritas 188153797
%%humdrum-veritas-data 3792015962
%%
%%barnumbers 0
L: 1/4
M: C
%%staves [1 2 3 4]
V: 1 clef=treble
V: 2 clef=treble
V: 3 clef=treble-8
V: 4 clef=bass
K: G
[V:1] GABA | 
[V:2] DDDD | 
[V:3] BAG-G/F/ | 
[V:4] G,F,G,D, | 
[V:1] GFE!fermata!D | 
[V:2] D/^C/DC!fermata!A, | 
[V:3] GAA/G/!fermata!F | 
[V:4] E,F,/G,/A,!fermata!D, | 
[V:1] GABc | 
[V:2] EDDA | 
[V:3] BAG/F/ E/F/ | 
[V:4] E,F,G,A,, | 
[V:1] BA!fermata!G2 :|]  
[V:2] DD!fermata!D2 :|]  
[V:3] G3/F/!fermata!B2 :|]  
[V:4] B,,/C,/D,!fermata!G,,2 :|]  
[V:1] Bcdc | 
[V:2] GGFG | 
[V:3] deAe | 
[V:4] G,/F,/E,D,E,/F,/ | 
[V:1] BA!fermata!B2 | 
[V:2] G3/F/!fermata!G2 | 
[V:3] dd!fermata!d2 | 
[V:4] G,D,!fermata!G,,2 | 
[V:1] dded | 
[V:2] GGG-G/F/ | 
[V:3] BBc/B/A | 
[V:4] G,/=F,/E,/D,/C,D, | 
[V:1] cB!fermata!A2 | 
[V:2] ED/E/!fermata!F2 | 
[V:3] G/A/ B/^c/!fermata!d2 | 
[V:4] E,/F,/G,!fermata!D,2 | 
[V:1] BdcB/A/ | 
[V:2] G-G/F/ E/F/ G/F/ | 
[V:3] d/=c/Bcd | 
[V:4] G,G,,A,,B,, | 
[V:1] GAB2 | 
[V:2] EFG2 | 
[V:3] e/d/cd2 | 
[V:4] C,/B,,/A,,G,,/A,,/B,,/G,,/ | 
[V:1] !fermata!G2B/c/d | 
[V:2] !fermata!E2GA | 
[V:3] !fermata!c2dd | 
[V:4] !fermata!C,2G,F, | 
[V:1] cBAB | 
[V:2] GD/E/FG | 
[V:3] G/A/ B/c/dd | 
[V:4] E,/F,/G,C,B,,/C,/ | 
[V:1] A2!fermata!G2 |]  
[V:2] GF!fermata!D2 |]  
[V:3] d3/c/!fermata!B2 |]  
[V:4] D,2!fermata!G,,2 |]  



